!!!!SEGMENT: pl-sa--176-a-v-6--005_anonim--msza-osanna.krn
!!!cenid: 17xx:1616
!!!COM: Anonim
!!!COM-rismid: pe30004985
!!!CDT:
!!!CNT:
!!!OPR: Msza
!!!OTL: Osanna
!!!OMV: 005
!!!PDT:
!!!AGN: Sacred; Mass
!!!SMS-siglum: PL-SA
!!!SMS-shelfmark: 176/A V 6
!!!SMS-shelfwork: 001-005 M
!!!SMS-variant:
!!!SMS-altvar:
!!!NIFC-rismid: 1001035881
!!!URL-scan: http://bc.bdsandomierz.pl/dlibra/publication/1510/edition/1478/content
!!!ONB-nifc: UWAGA: części Mszy: 1. Kyrie, 2. Et in terra, 3. Patrem, 4. Sanctus, 5. Osanna, 6. Benedictus, 7. Agnus Dei. Uwaga: błąd w sygnaturze w metadanych bc.bdsandomierz.pl
!!!key: E-
**kern	**fba	**kern	**kern	**kern	**text	**kern	**text	**kern	**text	**kern	**text	**kern	**kern
*	*	*group3	*group3	*group2	*	*group2	*	*group2	*	*group2	*	*group1	*group1
*part9	*	*part8	*part7	*part6	*part6	*part5	*part5	*part4	*part4	*part3	*part3	*part2	*part1
*staff9	*	*staff8	*staff7	*staff6	*staff6	*staff5	*staff5	*staff4	*staff4	*staff3	*staff3	*staff2	*staff1
*I"ORG.ANO.	*	*I"Violino 2do	*I"Violino 1mo.	*I"Baſso.	*	*I"Tenore.	*	*I"Alto.	*	*I"Canto.	*	*I"Lituo 2do ex Dis ad Libitum	*I"Lituo 1mo ex Dis ad Libitum
*I'org	*	*I'vl 2	*I'vl 1	*I'B	*	*I'T	*	*I'A	*	*I'S	*	*I'lituus 2	*I'lituus 1
*Iorgan	*	*Ivioln	*Ivioln	*Ibass	*	*Itenor	*	*Ialto	*	*Isoprn	*	*	*
*ICklav	*	*ICstr	*ICstr	*ICvox	*	*ICvox	*	*ICvox	*	*ICvox	*	*ICbras	*ICbras
*IGcont	*	*	*	*IGcoro	*	*IGcoro	*	*IGcoro	*	*IGcoro	*	*	*
*clefF4	*	*clefG2	*clefG2	*clefF4	*	*clefC4	*	*clefC3	*	*clefC1	*	*clefG2	*clefG2
*	*	*	*	*	*	*	*	*	*	*	*	*ITrd-2c-3	*ITrd-2c-3
*k[a-b-e-a-]	*	*k[a-b-e-]	*k[a-b-e-]	*k[a-b-e-]	*	*k[a-b-e-]	*	*k[a-b-e-]	*	*k[a-b-e-]	*	*k[b-e-a-]	*k[b-e-a-]
*E-:	*	*E-:	*E-:	*E-:	*	*E-:	*	*E-:	*	*E-:	*	*E-:	*E-:
*M2/4	*	*M2/4	*M2/4	*M2/4	*	*M2/4	*	*M2/4	*	*M2/4	*	*M2/4	*M2/4
=1	=1	=1	=1	=1	=1	=1	=1	=1	=1	=1	=1	=1	=1
!LO:TX:t=P:problem:kolejność znaków AA- BB- E- A-	!	!LO:TX:t=P:problem:kolejność znaków a- b- ee-	!LO:TX:t=P:problem:przy kluczu błędnie a- b- cc-	!	!	!	!	!	!	!LO:TX:t=P:problem:kolejność znaków a- b- ee-	!	!	!
16E-\LL	.	1r	1r	0r	.	1r	.	4r	.	0r	.	0r	0r
16F\	.	.	.	.	.	.	.	.	.	.	.	.	.
16G\	.	.	.	.	.	.	.	.	.	.	.	.	.
16F\JJ	.	.	.	.	.	.	.	.	.	.	.	.	.
8E-\L	.	.	.	.	.	.	.	8r	.	.	.	.	.
8D\J	.	.	.	.	.	.	.	8B-/	O-	.	.	.	.
=2	=2	=2	=2	=2	=2	=2	=2	=2	=2	=2	=2	=2	=2
8E-\L	.	.	.	.	.	.	.	(16e-\LL	-san-	.	.	.	.
.	.	.	.	.	.	.	.	16f\JJ)	.	.	.	.	.
8E-\	.	.	.	.	.	.	.	(16g\LL	-na	.	.	.	.
.	.	.	.	.	.	.	.	16f\JJ)	.	.	.	.	.
8E-\	.	.	.	.	.	.	.	(16e-\LL	in	.	.	.	.
.	.	.	.	.	.	.	.	16f\JJ)	.	.	.	.	.
8E-\J	.	.	.	.	.	.	.	(16g\LL	ex-	.	.	.	.
.	.	.	.	.	.	.	.	16f\JJ)	.	.	.	.	.
=3	=3	=3	=3	=3	=3	=3	=3	=3	=3	=3	=3	=3	=3
8E-\L	.	4rg	4rg	.	.	4r	.	(16e-\LL	-cel-	.	.	.	.
.	.	.	.	.	.	.	.	16f\)	.	.	.	.	.
8E-\	.	.	.	.	.	.	.	(16g\	.	.	.	.	.
.	.	.	.	.	.	.	.	16a-\JJ)	.	.	.	.	.
8E-\J	.	8rg	8rg	.	.	8r	.	8b-\	-sis	.	.	.	.
8r	.	8e-/	8e-/	.	.	8B-\	O-	8g\	O-	.	.	.	.
=4	=4	=4	=4	=4	=4	=4	=4	=4	=4	=4	=4	=4	=4
2r	.	8f/L	8f/L	.	.	(8B-\L	-san-	(8g\L	-san-	.	.	.	.
.	.	8f/	8f/	.	.	8A-\J)	.	8f\J)	.	.	.	.	.
.	.	8f/	8f/	.	.	8A-\	-na	8f\	-na	.	.	.	.
.	.	8d/J	8d/J	.	.	8A-\	O-	8f\	O-	.	.	.	.
=5	=5	=5	=5	=5	=5	=5	=5	=5	=5	=5	=5	=5	=5
4r	.	8e-/L	8e-/L	0r	.	(8A-\L	-san-	(8f\L	-san-	0r	.	0r	0r
.	.	8e-/	8e-/	.	.	8G\J)	.	8e-\J)	.	.	.	.	.
8r	.	8e-/	8e-/	.	.	8G\	-na	8e-\	-na	.	.	.	.
8E-\	.	8g/J	8g/J	.	.	8r	.	8r	.	.	.	.	.
!	!	!	!	!	!	!	!	!LO:LB:g=original	!	!	!	!	!
=6	=6	=6	=6	=6	=6	=6	=6	=6	=6	=6	=6	=6	=6
8F\L	4 2	8g/L	(8b-/L	.	.	2r	.	2r	.	.	.	.	.
8F\	x 3	8f/	8a-/	.	.	.	.	.	.	.	.	.	.
8F\	.	8f/	8a-/	.	.	.	.	.	.	.	.	.	.
8E-\J	.	8f/J	8a-/J)	.	.	.	.	.	.	.	.	.	.
=7	=7	=7	=7	=7	=7	=7	=7	=7	=7	=7	=7	=7	=7
8E-\L	4 2	8f/L	8a-/L	.	.	4r	.	4r	.	.	.	.	.
8E-\	x 3	8e-/	8g/	.	.	.	.	.	.	.	.	.	.
8E-\	.	8e-/J	8g/J	.	.	8r	.	8r	.	.	.	.	.
8B-\J	.	8r	8r	.	.	8B-\	O-	8d\	O-	.	.	.	.
=8	=8	=8	=8	=8	=8	=8	=8	=8	=8	=8	=8	=8	=8
8c\L	7_	0r	0r	.	.	8B-\L	-san-	[4e-\	-san-	.	.	.	.
8c\J	.	.	.	.	.	16c\L	.	.	.	.	.	.	.
.	.	.	.	.	.	16G\JJ	.	.	.	.	.	.	.
8c\L	6	.	.	.	.	[<4A-\	.	8e-\L]	.	.	.	.	.
16d\L	.	.	.	.	.	.	.	16f\L	.	.	.	.	.
16A-\JJ	.	.	.	.	.	.	.	16d\JJ	.	.	.	.	.
=9	=9	=9	=9	=9	=9	=9	=9	=9	=9	=9	=9	=9	=9
8B-\L	7_	.	.	1r	.	8A-\L]	.	[4d\	.	1r	.	1r	1r
8B-\J	.	.	.	.	.	16B-\L	.	.	.	.	.	.	.
.	.	.	.	.	.	16F\JJ	.	.	.	.	.	.	.
8B-\L	6	.	.	.	.	[<4G\	.	8d\L]	.	.	.	.	.
16c\L	.	.	.	.	.	.	.	16e-\L	.	.	.	.	.
16G\JJ	.	.	.	.	.	.	.	16B-\JJ	.	.	.	.	.
!	!	!	!	!	!	!LO:PB:g=original	!	!	!	!	!	!	!
=10	=10	=10	=10	=10	=10	=10	=10	=10	=10	=10	=10	=10	=10
!	!	!	!	!	!	!LO:TX:t=P:problem:brak zakończenia ligatury	!	!	!	!	!	!	!
8A-\L	.	.	.	.	.	8G\L]	.	4.c\	.	.	.	.	.
8A-\J	.	.	.	.	.	16A-\L	.	.	.	.	.	.	.
.	.	.	.	.	.	16E-\JJ	.	.	.	.	.	.	.
8A-\L	.	.	.	.	.	8F/	.	.	.	.	.	.	.
16G\L	.	.	.	.	.	8F/	-na	8c\	-na	.	.	.	.
16F\JJ	.	.	.	.	.	.	.	.	.	.	.	.	.
=11	=11	=11	=11	=11	=11	=11	=11	=11	=11	=11	=11	=11	=11
!LO:TX:t=P:problem:mixed beam	!	!	!	!	!	!	!	!	!	!	!	!	!
8B-\L	.	.	.	2r	.	8F/L	in	8d\	in	2r	.	2r	2r
8E-\	.	.	.	.	.	16G/L	ex-	(16e-\LL	ex-	.	.	.	.
.	.	.	.	.	.	16A-/JJ	.	16f\JJ)	.	.	.	.	.
8B-\	.	.	.	.	.	4F/	-cel-	4d\	-cel-	.	.	.	.
8BB-/J	.	.	.	.	.	.	.	.	.	.	.	.	.
!LO:LB:g=original	!	!	!	!	!	!	!	!	!	!	!	!	!
=12	=12	=12	=12	=12	=12	=12	=12	=12	=12	=12	=12	=12	=12
8E-\L	3	4rg	4r	8r	.	8E-/	-sis	8e-\	-sis	8r	.	4rb	4r
8E-\	.	.	.	8E-\	O-	8G/	O-	8g\	O-	8b-\	O-	.	.
8D\	6	8rg	8r	8D\	-san-	8B-\	-san-	8f\	-san-	8b-\	-san-	8rb	8r
8E-\J	.	8g/	8b-\	8E-\	-na	8G/	-na	8g\	-na	8b-\	-na	8g/	8ee-\
=13	=13	=13	=13	=13	=13	=13	=13	=13	=13	=13	=13	=13	=13
8r	.	8f/L	8b-\L	8r	.	8r	.	8r	.	8r	.	8b-/L	8ff\L
8E-\L	.	8g/J	8b-\J	8E-\	O-	8G/	O-	8g\	O-	8b-\	O-	8g/J	8ee-\J
8D\	.	8r	8r	8D\	-san-	8B-\	-san-	8f\	-san-	8b-\	-san-	8r	8r
8E-\J	.	8gg\	8bb-\	8E-\	-na	8G/	-na	8g\	-na	8b-\	-na	8ee-\	8gg\
!	!	!	!LO:LB:g=original	!	!	!	!	!LO:PB:g=original	!	!LO:LB:g=original	!	!	!
=14	=14	=14	=14	=14	=14	=14	=14	=14	=14	=14	=14	=14	=14
8r	.	8ff\L	8bb-\L	8r	.	8r	.	8r	.	8r	.	8ff\L	8bb-\L
8E-\L	.	8gg\J	8bb-\J	8E-\	O-	8G/	O-	8g\	O-	8b-\	O-	8ee-\	8gg\
8D\	6	8r	8r	(8D\L	-san-	8B-\L	-san-	(8f\L	-san-	16b-\LL	-san-	8ff\	8bb-\
.	.	.	.	.	.	.	.	.	.	16cc\	.	.	.
8E-\J	.	8ee-\	8gg\	8E-\J)	.	8G\J	.	8g\J)	.	16b-\	.	8ee-\J	8gg\J
.	.	.	.	.	.	.	.	.	.	16cc\JJ	.	.	.
=15	=15	=15	=15	=15	=15	=15	=15	=15	=15	=15	=15	=15	=15
!LO:TX:t=P:problem:mixed beam	!	!	!	!	!	!	!	!	!	!	!	!	!
8BB-/L	.	8dd\	8ff\	8BB-/	-na	8B-\	-na	8f\	-na	8dd\	-na	8b-/	8ff\
8B-\	.	8r	8r	8B-\	O-	8d\	O-	8f\	O-	8dd\	O-	8rb	8r
!	!	!	!	!LO:LB:g=original	!	!	!	!	!	!	!	!	!
8An\	.	8r	8r	8An\	-san-	8c\	-san-	8f\	-san-	8ff\	-san-	4rb	4r
8B-\J	.	8dd\	8ff\	8B-\	-na	8d\	-na	8f\	-na	8dd\	-na	.	.
!	!	!LO:LB:g=original	!	!	!	!	!	!	!	!	!	!	!
=16	=16	=16	=16	=16	=16	=16	=16	=16	=16	=16	=16	=16	=16
8r	.	8cc\L	8ff\L	8r	.	8r	.	8r	.	8r	.	2r	2r
8B-\L	.	8dd\J	8ff\J	8B-\	O-	8d\	O-	8f\	O-	8dd\	O-	.	.
8An\	.	8r	8r	8An\	-san-	8c\	-san-	8f\	-san-	8ff\	-san-	.	.
8B-\J	.	8dd\	8ff\	8B-\	-na	8d\	-na	8f\	-na	8dd\	-na	.	.
!	!	!	!	!	!	!LO:LB:g=original	!	!	!	!	!	!	!
=17	=17	=17	=17	=17	=17	=17	=17	=17	=17	=17	=17	=17	=17
8r	.	8cc\L	8ff\L	8r	.	8r	.	8r	.	8r	.	4r	4r
8B-\L	.	8dd\J	8ff\J	8B-\	O-	8d\	O-	8f\	O-	8dd\	O-	.	.
8An\	.	8r	8r	8An\	-san-	8c\	-san-	8f\	-san-	8ff\	-san-	8r	8r
8B-\J	.	8dd\	8ff\	8B-\	-na	8d\	-na	8f\	-na	8dd\	-na	8ff\	8bb-\
=18	=18	=18	=18	=18	=18	=18	=18	=18	=18	=18	=18	=18	=18
!LO:TX:t=P:problem:mixed beam	!	!	!	!	!	!	!	!	!	!	!	!	!
8G\L	6	8ee-\L	8gg\L	8G\	in	16B-\LL	in	8g\	in	8ee-\	in	8gg\L	8bb-\L
!	!	!	!	!	!	!LO:TX:t=P:problem:♮ above	!	!	!	!	!	!	!
.	.	.	.	.	.	16An\JJ	.	.	.	.	.	.	.
8B-\	.	16dd\L	8ff\J	8B-\	ex-	16A\LL	ex-	8f\	ex-	16dd\LL	ex-	8ff\J	8bb-\J
.	.	16cc\JJ	.	.	.	16B-\JJ	.	.	.	16cc\JJ	.	.	.
8F\	n	4cc\	16ff\LL	4F\	-cel-	4A\	-cel-	4f\	-cel-	4cc\	-cel-	4ff\	4aaX\
.	.	.	16gg\	.	.	.	.	.	.	.	.	.	.
8FF/J	.	.	16ff\	.	.	.	.	.	.	.	.	.	.
.	.	.	16ee-\JJ	.	.	.	.	.	.	.	.	.	.
=19	=19	=19	=19	=19	=19	=19	=19	=19	=19	=19	=19	=19	=19
!	!	!	!	!	!	!	!	!	!	!	!	!LO:SIC:v:s=4dd	!
16BB-/LL	.	4b-\	4dd\	4BB-/	-ſis	4B-\	-sis	4f\	-sis	4b-\	-ſis	4ee-\	4bb-\
16C/	.	.	.	.	.	.	.	.	.	.	.	.	.
16D/	.	.	.	.	.	.	.	.	.	.	.	.	.
16C/JJ	.	.	.	.	.	.	.	.	.	.	.	.	.
8BB-/L	.	4r	4r	4r	.	4r	.	4r	.	8r	.	4rb	8r
!	!	!	!	!	!	!	!	!	!	!LO:TX:a:t=Solo	!	!	!
8AAn/J	.	.	.	.	.	.	.	.	.	8f/	O-	.	8r
=20	=20	=20	=20	=20	=20	=20	=20	=20	=20	=20	=20	=20	=20
8BB-/L	.	2r	2r	0r	.	2r	.	0r	.	(16b-\LL	-san-	0r	0r
.	.	.	.	.	.	.	.	.	.	16cc\JJ)	.	.	.
8BB-/	.	.	.	.	.	.	.	.	.	(16dd\LL	-na	.	.
.	.	.	.	.	.	.	.	.	.	16cc\JJ)	.	.	.
8BB-/	.	.	.	.	.	.	.	.	.	(16b-\LL	in	.	.
.	.	.	.	.	.	.	.	.	.	16cc\JJ)	.	.	.
8BB-/J	.	.	.	.	.	.	.	.	.	(16dd\LL	ex-	.	.
.	.	.	.	.	.	.	.	.	.	16cc\JJ)	.	.	.
=21	=21	=21	=21	=21	=21	=21	=21	=21	=21	=21	=21	=21	=21
8BB-/L	.	4rg	4rg	.	.	4r	.	.	.	16b-\LL	-cel-	.	.
.	.	.	.	.	.	.	.	.	.	16cc\	.	.	.
8BB-/	.	.	.	.	.	.	.	.	.	16dd\	.	.	.
.	.	.	.	.	.	.	.	.	.	16ee-\JJ	.	.	.
8BB-/J	.	8rg	8rg	.	.	8r	.	.	.	8ff\	-sis	.	.
8rBB	.	8B-/	8B-/	.	.	8d\	O-	.	.	8ff\	O-	.	.
!	!	!	!	!	!	!	!	!	!	!LO:LB:g=original	!	!	!
=22	=22	=22	=22	=22	=22	=22	=22	=22	=22	=22	=22	=22	=22
2r	.	8c/L	8c/L	.	.	(8d\L	-san-	.	.	(8ff\L	-san-	.	.
.	.	8c/	8c/	.	.	8c\J)	.	.	.	8ee-\J)	.	.	.
.	.	8c/	8c/	.	.	8c\	-na	.	.	8ee-\	-na	.	.
.	.	8An/J	8An/J	.	.	8c\	O-	.	.	8ee-\	O-	.	.
!	!	!	!LO:LB:g=original	!	!	!	!	!	!	!	!	!	!
=23	=23	=23	=23	=23	=23	=23	=23	=23	=23	=23	=23	=23	=23
!	!	!LO:TX:t=P:problem:mixed beam	!LO:TX:t=P:problem:mixed beam	!	!	!	!	!	!	!	!	!	!
4r	.	8B-/L	8B-/L	.	.	(8c\L	-san-	.	.	(8ee-\L	-san-	.	.
.	.	8B-/	8B-/	.	.	8B-\J)	.	.	.	8dd\J)	.	.	.
8r	.	8B-/	8B-/	.	.	8B-\	-na	.	.	8dd\	-na	.	.
8B-\	.	8dd\J	8ff\J	.	.	8r	.	.	.	8r	.	.	.
=24	=24	=24	=24	=24	=24	=24	=24	=24	=24	=24	=24	=24	=24
8c\L	4 2	8dd\L	(8ff\L	0r	.	2r	.	0r	.	2r	.	0r	0r
8c\	x 3	8cc\	8ee-\	.	.	.	.	.	.	.	.	.	.
8c\	.	8cc\	8ee-\	.	.	.	.	.	.	.	.	.	.
8An\J	.	8cc\J	8ee-\J)	.	.	.	.	.	.	.	.	.	.
!LO:LB:g=original	!	!	!	!	!	!	!	!	!	!	!	!	!
=25	=25	=25	=25	=25	=25	=25	=25	=25	=25	=25	=25	=25	=25
8B-\L	4 2	8cc\L	8ee-\L	.	.	4r	.	.	.	4r	.	.	.
8B-\	.	8b-\	8dd\	.	.	.	.	.	.	.	.	.	.
8B-\	3	8b-\	8dd\	.	.	8r	.	.	.	8r	.	.	.
!	!	!	!	!	!	!LO:N:acc=#	!	!	!	!	!	!	!
8F\J	n	8an\J	8ff\J	.	.	8An/	O-	.	.	8ff\	O-	.	.
=26	=26	=26	=26	=26	=26	=26	=26	=26	=26	=26	=26	=26	=26
8G\L	7	8b-\L	8ff\L	.	.	4.B-\	-san-	.	.	8ff\L	-san-	.	.
8G\J	.	8b-\J	16gg\L	.	.	.	.	.	.	16gg\L	.	.	.
.	.	.	16dd\JJ	.	.	.	.	.	.	16dd\JJ	.	.	.
8G\L	6_	8b-\L	8ee-\L	.	.	.	.	.	.	[<4ee-\	.	.	.
16A-\L	.	16cc\L	8ee-\J	.	.	16c\LL	.	.	.	.	.	.	.
16D\JJ	.	16g\JJ	.	.	.	16G\JJ	.	.	.	.	.	.	.
!	!	!LO:LB:g=original	!	!	!	!LO:LB:g=original	!	!	!	!	!	!	!
=27	=27	=27	=27	=27	=27	=27	=27	=27	=27	=27	=27	=27	=27
8F\L	n7	8an/L	8ee-\L	.	.	4.An\	.	.	.	8ee-\L]	.	.	.
8F\J	.	8a/J	16ff\L	.	.	.	.	.	.	16ff\L	.	.	.
.	.	.	16cc\JJ	.	.	.	.	.	.	16cc\JJ	.	.	.
8F\L	6_	8a/L	8dd\L	.	.	.	.	.	.	[<4dd\	.	.	.
16G\L	.	16b-/L	8dd\J	.	.	16B-\LL	.	.	.	.	.	.	.
16D\JJ	.	16f/JJ	.	.	.	16F\JJ	.	.	.	.	.	.	.
=28	=28	=28	=28	=28	=28	=28	=28	=28	=28	=28	=28	=28	=28
8E-\L	7	8g/L	8dd\L	1r	.	4.G/	.	1r	.	8dd\L]	.	0r	0r
8E-\J	.	8g/J	16ee-\L	.	.	.	.	.	.	16ee-\L	.	.	.
.	.	.	16b-\JJ	.	.	.	.	.	.	16b-\JJ	.	.	.
8E-\L	6_	8g/L	8cc\L	.	.	.	.	.	.	8cc\	.	.	.
16D\L	.	16f/L	8cc\J	.	.	8G/	-na	.	.	8cc\	-na	.	.
16C\JJ	.	16e-/JJ	.	.	.	.	.	.	.	.	.	.	.
=29	=29	=29	=29	=29	=29	=29	=29	=29	=29	=29	=29	=29	=29
!LO:TX:t=P:problem:mixed beam	!	!	!	!	!	!	!	!	!	!	!	!	!
8F\L	n	8f/L	8cc\L	.	.	8An\	in	.	.	8cc\	in	.	.
8BB-\	.	8f/	16dd\L	.	.	(16B-\LL	ex-	.	.	(16dd\LL	ex-	.	.
.	.	.	16ee-\JJ	.	.	16c\JJ)	.	.	.	16ee-\JJ)	.	.	.
8F\	n	8f/	8cc\L	.	.	4An\	-cel-	.	.	4cc\	-cel-	.	.
8FF/J	.	8an/J	8ff\J	.	.	.	.	.	.	.	.	.	.
=30	=30	=30	=30	=30	=30	=30	=30	=30	=30	=30	=30	=30	=30
!LO:TX:t=P:problem:mixed beam	!	!	!	!	!	!	!	!	!	!	!	!	!
8BB-/L	.	8b-\L	8dd\L	8r	.	8B-\	-sis	8r	.	8b-\	-ſis	.	.
8B-\	.	8ff\J	8ff\J	8B-\	O-	8B-\	O-	8f\	O-	8dd\	O-	.	.
!	!	!	!	!LO:N:acc=#	!	!	!	!	!	!	!	!	!
8An\	6	16ff\LL	16ff\LL	8An\L	-san-	(8c\L	-san-	4f\	-san-	8ff\L	-san-	.	.
.	.	16gg\	16gg\	.	.	.	.	.	.	.	.	.	.
8B-\J	.	16ff\	16ff\	8B-\J	.	8B-\J)	.	.	.	8dd\J	.	.	.
.	.	16gg\JJ	16gg\JJ	.	.	.	.	.	.	.	.	.	.
!	!	!	!LO:LB:g=original	!	!	!	!	!LO:LB:g=original	!	!LO:PB:g=original	!	!	!
=31	=31	=31	=31	=31	=31	=31	=31	=31	=31	=31	=31	=31	=31
8F#X\L	6_	8aan\L	8aan\L	8F#X\	-na	8An\	-na	8an\	-na	8dd\	-na	.	.
8G\	.	8dd\J	8dd\J	8G\	O-	8B-\	O-	8g\	O-	8dd\	O-	.	.
8F#X\	.	16dd\LL	16dd\LL	8F#X\	-san-	8A\	-san-	8an\	-san-	8dd\	-san-	.	.
.	.	16ee-\	16ee-\	.	.	.	.	.	.	.	.	.	.
8G\J	.	16dd\	16dd\	8G\	-na	8B-\	-na	8g\	-na	8dd\	-na	.	.
.	X	16ee-\JJ	16ee-\JJ	.	.	.	.	.	.	.	.	.	.
=32	=32	=32	=32	=32	=32	=32	=32	=32	=32	=32	=32	=32	=32
8r	.	8dd\L	8dd\L	8r	.	8r	.	8r	.	8r	.	0r	0r
8G\L	.	8dd\	8dd\	8G\	O-	8B-\	O-	8d\	O-	8dd\	O-	.	.
8F#X\	.	8dd\	8dd\	8F#X\	-san-	8An\	-san-	8d\	-san-	8dd\	-san-	.	.
8G\J	.	8dd\J	8dd\J	8G\	-na	8B-\	-na	8d\	-na	8dd\	-na	.	.
!	!	!	!	!LO:LB:g=original	!	!	!	!	!	!	!	!	!
=33	=33	=33	=33	=33	=33	=33	=33	=33	=33	=33	=33	=33	=33
!LO:TX:t=P:problem:mixed beam	!	!	!	!	!	!	!	!	!	!	!	!	!
8E-\L	.	8gg\L	8gg\L	8E-\	in	8B-\	in	8g\	in	8ee-\	in	.	.
8C\	.	8an\J	8an\J	8C\	ex-	8c\	ex-	8g\	ex-	8ee-\	ex-	.	.
8D\	#	4a\	4a\	4D/	-cel-	4An/	-cel-	4f#X\	-cel-	4dd\	-cel-	.	.
8DD/J	.	.	.	.	.	.	.	.	.	.	.	.	.
!	!	!	!	!	!	!LO:LB:g=original	!	!	!	!	!	!	!
=34	=34	=34	=34	=34	=34	=34	=34	=34	=34	=34	=34	=34	=34
!LO:SIC:v:s=8GG	!	!	!	!	!	!	!	!	!	!	!	!	!
!LO:TX:t=P:problem:mixed beam	!	!	!	!	!	!	!	!	!	!	!	!	!
8AA-/L	.	8g/L	8b-/L	8GG/	-ſis	4G/	-sis	8g\	-ſis	4dd\	-sis	.	.
16G\L	.	16G/L	16G/L	8r	.	.	.	8r	.	.	.	.	.
!	!	!LO:SIC:v:s=16An	!	!	!	!	!	!	!	!	!	!	!
16An\JJ	.	16A-/JJ	16An/JJ	.	.	.	.	.	.	.	.	.	.
8B-\L	6	8B-/L	8B-/L	4r	.	8r	.	4r	.	8r	.	.	.
8G\J	.	8G/J	8G/J	.	.	8B-\	O-	.	.	8dd\	O-	.	.
=35	=35	=35	=35	=35	=35	=35	=35	=35	=35	=35	=35	=35	=35
8An\L	4 2	1r	1r	2r	.	8B-\L	-san-	2r	.	(8dd\L	-san-	.	.
8A\	.	.	.	.	.	8An\J	.	.	.	8cc\J)	.	.	.
8A\	n 3	.	.	.	.	8A\	-na	.	.	8cc\	-na	.	.
8F#X\J	.	.	.	.	.	8A\	O-	.	.	8cc\	O-	.	.
!LO:LB:g=original	!	!	!	!	!	!	!	!	!	!	!	!	!
=36	=36	=36	=36	=36	=36	=36	=36	=36	=36	=36	=36	=36	=36
!	!	!	!	!	!	!LO:SIC:v:s=8An	!	!	!	!	!	!	!
8G\L	4 2	.	.	4r	.	(8A-\L	-san-	4r	.	(8cc\L	-san-	1r	1r
8G\	.	.	.	.	.	8G\J)	.	.	.	8b-\J)	.	.	.
8G\	x 3	.	.	8r	.	8G\	-na	8r	.	8b-\	-na	.	.
8E-\J	.	.	.	8B-\	O-	8r	.	8g\	O-	8r	.	.	.
=37	=37	=37	=37	=37	=37	=37	=37	=37	=37	=37	=37	=37	=37
8Fn\L	4 2	2r	2r	(8B-\L	-san-	2r	.	(8g\L	-san-	2r	.	.	.
8F\	.	.	.	8A-\J)	.	.	.	8fn\J)	.	.	.	.	.
8F\	x -3	.	.	8A-\	-na	.	.	8f\	-na	.	.	.	.
8D\J	.	.	.	8A-\	O-	.	.	8f\	O-	.	.	.	.
=38	=38	=38	=38	=38	=38	=38	=38	=38	=38	=38	=38	=38	=38
8E-\L	4 2	4r	4r	(8A-\L	-san-	4r	.	(8f\L	-san-	4r	.	4r	4r
8E-\	.	.	.	8G\J)	.	.	.	8e-\J)	.	.	.	.	.
8E-\	x 3	8r	8r	8G\	-na	8r	.	8e-\	-na	8r	.	8r	8r
8E-\J	.	8b-/	8b-/	8E-\	O-	8B-\	O-	8g\	O-	8b-\	O-	16ee-\LL	16gg\LL
.	.	.	.	.	.	.	.	.	.	.	.	16ff\JJ	16aa-\JJ
!	!	!LO:LB:g=original	!	!	!	!	!	!LO:LB:g=original	!	!LO:LB:g=original	!	!LO:LB:g=original	!LO:LB:g=original
=39	=39	=39	=39	=39	=39	=39	=39	=39	=39	=39	=39	=39	=39
8E-\L	.	16ee-\LL	16ee-\LL	8G\	-san-	8B-\	-san-	8g\	-san-	(16ee-\LL	-san-	8gg\L	8bb-\L
.	.	16ff\	16ff\	.	.	.	.	.	.	16ff\JJ)	.	.	.
8E-\	.	16gg\	16gg\	8B-\	-na	8B-\	-na	8g\	-na	(16gg\LL	-na	8gg\	8bb-\
.	.	16ff\JJ	16ff\JJ	.	.	.	.	.	.	16ff\JJ)	.	.	.
8E-\	.	16ee-\LL	16ee-\LL	8e-\	in	8B-\	in	8g\	in	(16ee-\LL	in	8gg\	8bb-\
.	.	16ff\	16ff\	.	.	.	.	.	.	16ff\JJ)	.	.	.
8E-\J	.	16gg\	16gg\	8B-\	ex-	8B-\	ex-	8g\	ex-	(16gg\LL	ex-	8gg\J	8bb-\J
.	.	16ff\JJ	16ff\JJ	.	.	.	.	.	.	16ff\JJ)	.	.	.
=40	=40	=40	=40	=40	=40	=40	=40	=40	=40	=40	=40	=40	=40
8E-\L	.	16ee-\LL	16ee-\LL	4G\	-cel-	4B-\	-cel-	4g\	-cel-	16ee-\LL	-cel-	8ee-\L	8gg\L
.	.	16ff\	16ff\	.	.	.	.	.	.	16ff\	.	.	.
8E-\	.	16gg\	16gg\	.	.	.	.	.	.	16gg\	.	8b-\	8gg\
.	.	16aa-X\JJ	16aa-X\JJ	.	.	.	.	.	.	16ff\JJ	.	.	.
8E-\	.	8bb-\L	8bb-\L	8E-\	-sis	8B-\	-ſis	8g\	-ſis	8ee-\	-sis	8ee-\	8gg\
8E-\J	.	8gg\J	8bb-\J	8E-\	O-	8e-\	O-	8g\	O-	8b-\	O-	8gg\J	8bb-\J
=41	=41	=41	=41	=41	=41	=41	=41	=41	=41	=41	=41	=41	=41
8F\L	4 2	8gg\L	8bb-\L	4F\	-san-	4c\	-san-	8g\L	-san-	(8b-\L	-san-	8gg\L	8bb-\L
8F\	.	8ff\	8aa-\	.	.	.	.	8f\J	.	8a-\J)	.	8ff\	8aa-\
8F\	x 3	8ff\	8aa-\	8F\	-na	8c\	-na	8f\	-na	8a-\	-na	8ff\	8aa-\
8D\J	.	8ff\J	8aa-\J	8D\	O-	8f\	O-	8f\	O-	8a-\	O-	8ff\J	8aa-\J
!	!	!	!LO:LB:g=original	!LO:LB:g=original	!	!	!	!	!	!	!	!	!
=42	=42	=42	=42	=42	=42	=42	=42	=42	=42	=42	=42	=42	=42
8E-\L	4 2	(8ff\L	8aa-\L	4E-\	-san-	4B-\	-san-	(8f\L	-san-	(8a-\L	-san-	8ff\L	8aa-\L
8E-\	x 3	8ee-\	8gg\	.	.	.	.	8e-\J)	.	8g\J)	.	8ee-\	8gg\
8E-\	.	8ee-\	8gg\	8E-\	-na	8B-\	-na	8e-\	-na	8g/	-na	8ee-\	8gg\
8B-\J	.	8b-\J)	8dd\J	8B-\	O-	8B-\	O-	8b-\	O-	8dd\	O-	8ff\J	8bb-\J
!	!	!	!	!	!	!LO:LB:g=original	!	!	!	!	!	!	!
=43	=43	=43	=43	=43	=43	=43	=43	=43	=43	=43	=43	=43	=43
8c\L	7	8b-\L	8ee-\L	4.c\	-san-	4G/	-san-	8b-\L	-san-	4.ee-\	-san-	8ee-\L	8bb-\L
8c\J	.	16cc\L	8ee-\J	.	.	.	.	16cc\L	.	.	.	8ee-\	16ccc\L
.	.	16g\JJ	.	.	.	.	.	16g\JJ	.	.	.	.	16gg\JJ
8c\L	6	8a-X\L	8ee-\L	.	.	4A-/	.	[<4a-\	.	.	.	8ee-\	8aa-\L
16d\L	.	8a-\J	16ff\L	16d\LL	.	.	.	.	.	16ff\LL	.	8ff\J	8aa-\J
16A-\JJ	.	.	16cc\JJ	16A-X\JJ	.	.	.	.	.	16cc\JJ	.	.	.
=44	=44	=44	=44	=44	=44	=44	=44	=44	=44	=44	=44	=44	=44
!	!	!	!	!	!	!	!	!	!	!	!	!LO:TX:t=P:problem:mixed beam	!
8B-\L	7	8a-/L	8dd\L	4.B-\	.	4F/	.	8a-\L]	.	4.dd\	.	8ff\L	8aa-\L
8B-\J	.	16b-/L	8dd\J	.	.	.	.	16b-\L	.	.	.	8ff\	16bb-\L
.	.	16f/JJ	.	.	.	.	.	16f\JJ	.	.	.	.	16ff\JJ
8B-\L	6	8g/L	8dd\L	.	.	4G/	.	[<4g\	.	.	.	8b-/	8gg\L
16c\L	.	8g/J	16ee-\L	(16c\LL	.	.	.	.	.	16ee-\LL	.	8b-/J	8gg\J
16G\JJ	.	.	16b-\JJ	16G\JJ)	.	.	.	.	.	16b-\JJ	.	.	.
=45	=45	=45	=45	=45	=45	=45	=45	=45	=45	=45	=45	=45	=45
8A-\L	7	8g/L	8cc\L	4.A-\	.	4.E-/	[[-na]]	8g\L]	.	4.cc\	.	8ee-\L	8gg\L
8A-\J	.	16a-/L	8cc\	.	.	.	.	16a-\L	.	.	.	8ee-\	16aa-\L
.	.	16e-/JJ	.	.	.	.	.	16e-\JJ	.	.	.	.	16ee-\JJ
8A-\L	6	8f/L	8cc\	.	.	.	.	8f\	.	.	.	8ff\	8ff\L
16G\L	.	8f/J	8ff\J	(16G\LL	-na	8A-/	-na	8f\	-na	8cc\	-na	8ff\J	8ff\J
16F\JJ	.	.	.	16F\JJ)	.	.	.	.	.	.	.	.	.
!	!	!	!	!	!	!	!	!LO:LB:g=original	!	!LO:LB:g=original	!	!	!
=46	=46	=46	=46	=46	=46	=46	=46	=46	=46	=46	=46	=46	=46
!LO:TX:t=P:problem:mixed beam	!	!	!	!	!	!	!	!	!	!	!	!	!
8B-\L	7	8f/L	8dd\L	8B-\	In	8A-/	in	8f\	in	8dd\	in	8b-\L	8ff\L
8E-\	.	16g/L	16ee-\L	8E-\	ex-	8G/	ex-	16g\LL	ex-	(16ee-\LL	ex-	16ee-\L	16gg\L
.	.	16a-/JJ	16ff\JJ	.	.	.	.	16a-\JJ	.	16ff\JJ)	.	16b-\JJ	16ff\JJ
!	!	!	!	!LO:TX:t=P:problem:mixed beam	!	!	!	!	!	!	!	!	!
8B-\	.	8g/L	8b-\L	8B-\L	-cel-	4B-\	-cel-	4f\	-cel-	4dd\	-cel-	8.b-/L	4ff\
8BB-/J	.	8b-/J	8dd\J	8BB-/J	.	.	.	.	.	.	.	.	.
.	.	.	.	.	.	.	.	.	.	.	.	16b-/Jk	.
=47	=47	=47	=47	=47	=47	=47	=47	=47	=47	=47	=47	=47	=47
!	!	!LO:TX:t=P:problem:mixed beam	!	!LO:N:vis=8	!	!	!	!	!	!	!	!LO:TX:t=P:problem:mixed beam	!
4E-\	.	8g/L	8ee-\L	4E-\	-sis	4B-\	-sis	4g\	-sis	4ee-\	-sis	8g/L	8ee-\L
.	.	16ee-\L	16gg\L	.	.	.	.	.	.	.	.	16gg\L	16bb-\L
.	.	16ee-\JJ	16gg\JJ	.	.	.	.	.	.	.	.	16gg\JJ	16bb-\JJ
8r	.	8dd\L	8ff\L	8r	.	8r	.	8r	.	8r	.	8ff\L	8bb-\L
8BB-/	.	8dd\J	8ff\J	16BB-/	in	16B-\	in	16f\	in	16dd\	in	8ff\J	8bb-\J
.	.	.	.	16BB-/	ex-	16B-\	ex-	16f\	ex-	16dd\	ex-	.	.
!	!	!	!	!	!	!	!	!	!	!	!	!LO:LB:g=original	!
=48	=48	=48	=48	=48	=48	=48	=48	=48	=48	=48	=48	=48	=48
8E-\L	.	8ee-\L	8gg\L	8E-\	-cel-	8B-\	-cel-	8g\	-cel-	8ee-\	-cel-	8gg\L	8bb-\L
8E-\J	.	8ee-\J	8gg\J	8E-\	-ſis	8B-\	-ſis	8g\	-ſis	8ee-\	-ſis	8gg\J	8bb-\J
!LO:TX:a:t=48	!	!LO:TX:b:t=48	!LO:TX:b:t=Benedictus \nVerte.	!LO:TX:b:t=Verte	!	!	!	!	!	!	!	!	!
4r	.	4r	4r	4r	.	4r	.	4r	.	4r	.	4r	4r
==	==	==	==	==	==	==	==	==	==	==	==	==	==
*-	*-	*-	*-	*-	*-	*-	*-	*-	*-	*-	*-	*-	*-
!!!system-decoration: [(g1)][(g2)][(g3)]s9
!!!RDF**kern: < = below
!!!ENC: Andrzej Kubiczek
!!!END: 2020-12-13
!!!AIN: 1 alto 1 bass 1 organ 1 soprn 1 tenor 2 violn
!!!ENC: Marta Lawrence
!!!END: 2022-03-24
